!!!OTL: St. Christoph
!!!ARE: Europa, Mitteleuropa, Deutschland
!!!SCT: A0614
!!!YEM: Copyright 1995, estate of Helmut Schaffrath.
**kern
*ICvox
*Ivox
*M3/2
*k[f#c#]
*D:
{2d
=1
1d
2d
=2
1a
2b
=3
1ccn
2b
=4
1a}
{2b
=5
1ccn
2b
=6
1a
2g
=7
2fn
4e
4d
2e
=8
1d}
{2g
=9
1e
2fn
=10
1g
2a
=11
2fn
1e
=12
1d}
{2d
=13
1a
2b
=14
1ccn
2dd
=15
2ccn
4b
4a
2b
=16
1a}
{2dd
=17
1b
2ccn
=18
1a
2g
=19
2a
2fn
2g
=20
1fn}
{2a
=21
1ccn
2b
=22
1a
2g
=23
2fn
4e
4d
2e
=24
1d}
==
!!!AGN: Romanze, Ballade, Lied, religioeses Lied
!! Notenbuchers Bergkreien 1551 No. 26 und Praetorius, Mus. Sion.
!!    VII. 1609 No. 182 von Boehme unterlegt.
!!!ONB: ESAC (Essen Associative Code) Database: ALTDEU
!!!AMT: simple triple
!!!AIN: vox
!!!EED: Helmut Schaffrath
!!!EEV: 1.0
*-
